public/formular-icons/english/upper-c.svg

<svg style="vertical-align:-.05ex" xmlns="http://www.w3.org/2000/svg" width="1.719ex" height="1.645ex" viewBox="0 -705 760 727" xmlns:xlink="http://www.w3.org/1999/xlink"><defs><path id="a" d="M50 252q0 115 67 221t169 168 204 63q90 0 143-51 9-10 15-17t8-10l1-3q3 0 27 26 7 6 15 14t16 16 10 11l15 15h6q14 0 14-7 0-4-32-137-36-139-36-140-2-5-5-6t-18-2h-16q-6 6-6 9 0 1 1 7t2 20 1 32q0 71-32 124t-109 54q-26 0-56-7t-72-24-83-56-73-93q-32-57-51-133t-19-124q0-114 76-164 48-34 118-34 91 0 162 68t94 148q4 13 6 15t16 2q20 0 20-9 0-5-1-9-29-107-124-184T319-22q-113 0-191 75T50 252Z"/></defs><g stroke="currentColor" fill="currentColor" stroke-width="0"><use data-c="1D436" xlink:href="#a" transform="scale(1 -1)"/></g></svg>

<svg style="vertical-align: -0.05ex" xmlns="http://www.w3.org/2000/svg" width="1.719ex" height="1.645ex" role="img" focusable="false" viewBox="0 -705 760 727" xmlns:xlink="http://www.w3.org/1999/xlink"><defs><path id="MJX-36-TEX-I-1D436" d="M50 252Q50 367 117 473T286 641T490 704Q580 704 633 653Q642 643 648 636T656 626L657 623Q660 623 684 649Q691 655 699 663T715 679T725 690L740 705H746Q760 705 760 698Q760 694 728 561Q692 422 692 421Q690 416 687 415T669 413H653Q647 419 647 422Q647 423 648 429T650 449T651 481Q651 552 619 605T510 659Q484 659 454 652T382 628T299 572T226 479Q194 422 175 346T156 222Q156 108 232 58Q280 24 350 24Q441 24 512 92T606 240Q610 253 612 255T628 257Q648 257 648 248Q648 243 647 239Q618 132 523 55T319 -22Q206 -22 128 53T50 252Z"></path></defs><g stroke="currentColor" fill="currentColor" stroke-width="0" transform="scale(1,-1)"><g data-mml-node="math"><g data-mml-node="mi"><use data-c="1D436" xlink:href="#MJX-36-TEX-I-1D436"></use></g></g></g></svg>
